X: 1657
T: the Piper's Despair   #2
R: hornpipe, reel
%S: s:2 b:12(6+6)
B: O'Neill's 1850 #1657
O: Hartnett
M: 4/4
L: 1/8
K: Em
|: EFGA BAFA | (3Bcd A>d (3Bcd A>F | D2FD [1,3 ADFD | (3Bcd A>d (3Bcd A>F :|[2,4 A2FA | Beed Bee2 :|
|: e2(ge) bege | bege bege | defg [1,3 adfd | adfd adfd :|[2,4 afdf | (3efg fd ecBG :|
